X:1
N: Forbes Rant
N: 8 x 32J 3C (Reel Friends)
P: Murray River Jig
C: By Graham Townsend
C: arr. T. Traub 5-20-2001
R: Jig
M: 6/8
K: A
L: 1/8
AB|"A"c2 c cBA|E3-EAB|c2 c dcB|"Bm"F3-F Bc|d2 d dcB|"E"g2 g g2 f |fee e^de |"A"fed cAB||
"A"c2 c cBA|E3-EAB|c2 c dcB|"Bm"F3-F Bc|d2 d dcB|"E"g2 g g2 f |efe dcB |"A"A3-A2 E||
|: "A"CA,A, A,CE|"G"DB,=G, G,2 B,|"A"A,CE AGA|"E"BEE E2 D|"A"CA,A, A,CE|"G"DB,=G, G,2 B,|"A"A,AA "E"GAB|"A"cAA A2 :|
